icons/circle/48/vcmiclient.svg

<svg xmlns="http://www.w3.org/2000/svg" viewBox="0 0 48 48">
 <defs>
  <linearGradient id="linearGradient4270" x1="1" x2="47" gradientUnits="userSpaceOnUse" gradientTransform="translate(-48,0)">
   <stop style="stop-color:#d8ae56;stop-opacity:1"/>
   <stop offset="1" style="stop-color:#dcb666;stop-opacity:1"/>
  </linearGradient>
 </defs>
 <g>
  <path d="m 36.31 5 c 5.859 4.062 9.688 10.831 9.688 18.5 c 0 12.426 -10.07 22.5 -22.5 22.5 c -7.669 0 -14.438 -3.828 -18.5 -9.688 c 1.037 1.822 2.306 3.499 3.781 4.969 c 4.085 3.712 9.514 5.969 15.469 5.969 c 12.703 0 23 -10.298 23 -23 c 0 -5.954 -2.256 -11.384 -5.969 -15.469 c -1.469 -1.475 -3.147 -2.744 -4.969 -3.781 z m 4.969 3.781 c 3.854 4.113 6.219 9.637 6.219 15.719 c 0 12.703 -10.297 23 -23 23 c -6.081 0 -11.606 -2.364 -15.719 -6.219 c 4.16 4.144 9.883 6.719 16.219 6.719 c 12.703 0 23 -10.298 23 -23 c 0 -6.335 -2.575 -12.06 -6.719 -16.219 z" style="opacity:0.05"/>
  <path d="m 41.28 8.781 c 3.712 4.085 5.969 9.514 5.969 15.469 c 0 12.703 -10.297 23 -23 23 c -5.954 0 -11.384 -2.256 -15.469 -5.969 c 4.113 3.854 9.637 6.219 15.719 6.219 c 12.703 0 23 -10.298 23 -23 c 0 -6.081 -2.364 -11.606 -6.219 -15.719 z" style="opacity:0.1"/>
  <path d="m 31.25 2.375 c 8.615 3.154 14.75 11.417 14.75 21.13 c 0 12.426 -10.07 22.5 -22.5 22.5 c -9.708 0 -17.971 -6.135 -21.12 -14.75 a 23 23 0 0 0 44.875 -7 a 23 23 0 0 0 -16 -21.875 z" style="opacity:0.2"/>
 </g>
 <circle cx="-24" cy="24" r="23" transform="matrix(0,-1,1,0,0,0)" style="fill:url(#linearGradient4270);opacity:1;fill-opacity:1;stroke:none;fill-rule:nonzero"/>
 <path d="m 13.948 14.295 c -0.201 0.018 -0.348 0.065 -0.436 0.146 -1.594 1.476 3.59 25.607 11.488 25.559 7.898 0.049 13.08 -24.08 11.488 -25.559 -0.704 -0.652 -5.129 0.954 -11.488 1.01 -5.565 -0.046 -9.647 -1.281 -11.05 -1.152 z" style="fill:#000;opacity:0.1;fill-opacity:1;stroke:none;fill-rule:evenodd"/>
 <g>
  <path d="m 40.03 7.531 c 3.712 4.084 5.969 9.514 5.969 15.469 0 12.703 -10.297 23 -23 23 c -5.954 0 -11.384 -2.256 -15.469 -5.969 4.178 4.291 10.01 6.969 16.469 6.969 c 12.703 0 23 -10.298 23 -23 0 -6.462 -2.677 -12.291 -6.969 -16.469 z" style="opacity:0.1"/>
 </g>
 <path d="m 12.947 13.295 c -0.201 0.018 -0.348 0.065 -0.436 0.146 c -1.594 1.476 3.59 25.607 11.488 25.559 7.898 0.049 13.08 -24.08 11.488 -25.559 -0.704 -0.652 -5.129 0.954 -11.488 1.01 -5.565 -0.046 -9.647 -1.281 -11.05 -1.152" style="fill:#585656;fill-opacity:1;stroke:none;fill-rule:evenodd"/>
 <path d="m 15.424 15.908 c -0.201 0.003 -0.337 0.03 -0.395 0.086 c -1.029 1.01 2.971 20.01 8.971 20.01 c 6 0 10 -19 8.971 -20.01 c -0.46 -0.45 -5.971 1.01 -8.971 1.01 c -2.625 0 -7.172 -1.114 -8.576 -1.092 z" style="fill:#9a857b;fill-opacity:1;stroke:none;fill-rule:evenodd"/>
</svg>

<svg xmlns="http://www.w3.org/2000/svg" viewBox="0 0 48 48">
  <defs>
    <linearGradient id="a" x1="1" x2="47" gradientUnits="userSpaceOnUse" gradientTransform="translate(-48)">
      <stop stop-color="#d8ae56"/>
      <stop offset="1" stop-color="#dcb666"/>
    </linearGradient>
  </defs>
  <path d="M36.31 5c5.859 4.062 9.688 10.831 9.688 18.5 0 12.426-10.07 22.5-22.5 22.5-7.669 0-14.438-3.828-18.5-9.688a23.24 23.24 0 0 0 3.781 4.969 22.923 22.923 0 0 0 15.469 5.969c12.703 0 23-10.298 23-23a22.92 22.92 0 0 0-5.969-15.469A23.216 23.216 0 0 0 36.31 5zm4.969 3.781A22.911 22.911 0 0 1 47.498 24.5c0 12.703-10.297 23-23 23a22.909 22.909 0 0 1-15.719-6.219C12.939 45.425 18.662 48 24.998 48c12.703 0 23-10.298 23-23 0-6.335-2.575-12.06-6.719-16.219z" opacity=".05"/>
  <path d="M41.28 8.781a22.923 22.923 0 0 1 5.969 15.469c0 12.703-10.297 23-23 23A22.92 22.92 0 0 1 8.78 41.281 22.911 22.911 0 0 0 24.499 47.5c12.703 0 23-10.298 23-23A22.909 22.909 0 0 0 41.28 8.781z" opacity=".1"/>
  <path d="M31.25 2.375C39.865 5.529 46 13.792 46 23.505c0 12.426-10.07 22.5-22.5 22.5-9.708 0-17.971-6.135-21.12-14.75a23 23 0 0 0 44.875-7 23 23 0 0 0-16-21.875z" opacity=".2"/>
  <circle cx="-24" cy="24" r="23" transform="rotate(-90)" fill="url(#a)"/>
  <path d="M13.948 14.295c-.201.018-.348.065-.436.146C11.918 15.917 17.102 40.048 25 40c7.898.049 13.08-24.08 11.488-25.559-.704-.652-5.129.954-11.488 1.01-5.565-.046-9.647-1.281-11.05-1.152z" opacity=".1" fill-rule="evenodd"/>
  <path d="M40.03 7.531A22.922 22.922 0 0 1 45.999 23c0 12.703-10.297 23-23 23A22.92 22.92 0 0 1 7.53 40.031C11.708 44.322 17.54 47 23.999 47c12.703 0 23-10.298 23-23 0-6.462-2.677-12.291-6.969-16.469z" opacity=".1"/>
  <path d="M12.947 13.295c-.201.018-.348.065-.436.146-1.594 1.476 3.59 25.607 11.488 25.559 7.898.049 13.08-24.08 11.488-25.559-.704-.652-5.129.954-11.488 1.01-5.565-.046-9.647-1.281-11.05-1.152" fill="#585656" fill-rule="evenodd"/>
  <path d="M15.424 15.908c-.201.003-.337.03-.395.086C14 17.004 18 36.004 24 36.004s10-19 8.971-20.01c-.46-.45-5.971 1.01-8.971 1.01-2.625 0-7.172-1.114-8.576-1.092z" fill="#9a857b" fill-rule="evenodd"/>
</svg>
